!!!!SEGMENT: pl-sa--242-a-vii-2_szczurowski-jacek--dziecino-boze.krn
!!!cenid: 17xx:259
!!!COM: Szczurowski, Jacek
!!!COM-rism: pe30017605
!!!CDT: 1716/08/15-~1733
!!!CNT: Polish
!!!OTL: Dziecino Boże
!!!PDT:
!!!AGN: Sacred
!!!SMS-siglum: PL-SA
!!!SMS-shelfmark: 242/A VII 2
!!!NIFC-rismID: 1001069541
!!!system-decoration: [(s1,s2)][(s3,s4)]s5
**kern	**fba	**kern	**kern	**kern	**text	**kern	**text
*part5	*part5	*part4	*part3	*part2	*part2	*part1	*part1
*staff5	*staff5	*staff4	*staff3	*staff2	*staff2	*staff1	*staff1
*I"P5	*	*I"Hautbois 2do	*I"Hautbois 1mo	*I"Canto 2do.	*	*I"Canto 1mo	*
*	*	*I'ob 2	*I'ob 1	*I'C 2	*	*I'C 1	*
*clefF4	*	*clefG2	*clefG2	*clefC1	*	*clefC1	*
*k[b-e-]	*	*k[b-e-]	*k[b-e-]	*k[b-e-]	*	*k[b-e-]	*
*M2/2	*	*M2/2	*M2/2	*M2/2	*	*M2/2	*
*met(c|)	*	*met(c|)	*met(c|)	*met(c|)	*	*met(c|)	*
=1	=1	=1	=1	=1	=1	=1	=1
!LO:TX:a:t=P:w źródle partia zapisana sekundę wielką niżej, w tonacji As-dur:problem	!	!	!	!	!	!	!
!	!	!LO:TX:a:t=P:w źródle cały takt doklejony; caudy z prawej strony tylko w tym takcie:problem	!	!	!	!	!
4BB-/	.	8r	8r	00r	.	00r	.
.	.	16b-\LL	16dd\LL	.	.	.	.
.	.	16cc\JJ	16ee-\JJ	.	.	.	.
8r	.	8dd\L	8ff\L	.	.	.	.
8F\	.	8a\J	8cc\J	.	.	.	.
4BB-/	.	8b-\L	8dd\L	.	.	.	.
.	.	16dd\L	16b-\L	.	.	.	.
.	.	16ee-\JJ	16cc\JJ	.	.	.	.
8r	.	8ff\L	8dd\L	.	.	.	.
8F\	.	8cc\J	8a\J	.	.	.	.
=2	=2	=2	=2	=2	=2	=2	=2
8B-\L	.	4dd\	4b-\	.	.	.	.
16F\L	.	.	.	.	.	.	.
16G\JJ	.	.	.	.	.	.	.
16F\LL	.	4r	4r	.	.	.	.
16E-\	.	.	.	.	.	.	.
16D\	.	.	.	.	.	.	.
16C\JJ	.	.	.	.	.	.	.
8BB-/L	.	8r	8r	.	.	.	.
8BB-/	.	16b-\LL	16dd\LL	.	.	.	.
.	.	16cc\JJ	16ee-\JJ	.	.	.	.
8D/	6	16b-\LL	16dd\LL	.	.	.	.
.	.	16cc\	16ee-\	.	.	.	.
8BB-/J	.	16b-\	16dd\	.	.	.	.
.	.	16cc\JJ	16ee-\JJ	.	.	.	.
=3	=3	=3	=3	=3	=3	=3	=3
8B-\L	.	8dd\L	8ff\L	.	.	.	.
8F\	.	16a\L	16cc\L	.	.	.	.
.	.	16b-\JJ	16dd\JJ	.	.	.	.
8F\	.	16a\LL	16cc\LL	.	.	.	.
.	.	16b-\JJ	16dd\	.	.	.	.
8F\J	.	16a\LL	16cc\	.	.	.	.
.	.	16b-\JJ	16dd\JJ	.	.	.	.
8c\L	.	8cc\L	8ee-\L	.	.	.	.
8G\	.	16dd\L	16b-\L	.	.	.	.
.	.	16ee-\JJ	16cc\JJ	.	.	.	.
8G\	.	16dd\LL	16b-\LL	.	.	.	.
.	.	16ee-\	16cc\	.	.	.	.
8G\J	.	16dd\	16b-\	.	.	.	.
.	.	16ee-\JJ	16cc\JJ	.	.	.	.
!	!	!LO:LB:g=original	!	!	!	!	!
=4	=4	=4	=4	=4	=4	=4	=4
8B-\L	.	8ff\L	8dd\L	.	.	.	.
8F\	.	16cc\L	16a\L	.	.	.	.
.	.	16dd\JJ	16b-\JJ	.	.	.	.
8F\	.	16cc\LL	16a\LL	.	.	.	.
.	.	16dd\	16b-\	.	.	.	.
8F\J	.	16cc\	16a\	.	.	.	.
.	.	16dd\JJ	16b-\JJ	.	.	.	.
!	!	!	!LO:LB:g=original	!	!	!	!
8F\L	.	8a\L	8cc\L	.	.	.	.
8G\	.	16a\L	16cc\L	.	.	.	.
.	.	16b-\JJ	16dd\JJ	.	.	.	.
8A\	.	16a\LL	16cc\LL	.	.	.	.
.	.	16b-\	16dd\	.	.	.	.
8F\J	.	16a\	16cc\	.	.	.	.
.	.	16b-\JJ	16dd\JJ	.	.	.	.
!LO:LB:g=original	!	!	!	!	!	!	!
=5	=5	=5	=5	=5	=5	=5	=5
*	*^	*	*	*	*	*	*
8c\L	.	.	8cc\L	8ee-\L	1r	.	1r	.
8B-\	.	.	16cc\L	16ee-\L	.	.	.	.
.	.	.	16b-\JJ	16dd\JJ	.	.	.	.
8A\	.	.	16cc\LL	16ee-\LL	.	.	.	.
.	.	.	(>16b-\	(>16dd\	.	.	.	.
8F\J	.	.	16dd\)	16ff\)	.	.	.	.
.	.	.	16cc\JJ	16ee-\JJ	.	.	.	.
!LO:TX:a:t=P:mixed beam:problem	!	!	!	!	!	!	!	!
8B-\L	.	.	8b-/L	8dd\L	.	.	.	.
8E-\	6 5	.	16a/L	16cc\L	.	.	.	.
.	.	.	16g/JJ	16b-\JJ	.	.	.	.
8F\	1	3	8f/L	8a/L	.	.	.	.
8FF/J	.	.	8e-/J	8a/J	.	.	.	.
*	*v	*v	*	*	*	*	*	*
=6	=6	=6	=6	=6	=6	=6	=6
8BB-/	.	8d/	8b-\	8r	.	8r	.
8r	.	8r	8r	16b-\LL	Dzie-	16dd\LL	Dzie-
.	.	.	.	16cc\JJ	.	16ee-\JJ	.
4r	.	4r	4r	8dd\	-ci-	8ff\	-ci-
.	.	.	.	8a\	-no	8cc\	-no
!LO:TX:a:t=P:mixed beam:problem	!	!	!	!	!	!	!
8B-\L	.	8r	8r	8b-\	Bo-	8dd\	Bo-
8BB-/	.	16b-\LL	16dd\LL	8f/	-ze	8b-\	-ze
.	.	16cc\JJ	16ee-\JJ	.	.	.	.
8BB-/	.	16b-\LL	16dd\LL	4r	.	4r	.
.	.	16cc\	16ee-\	.	.	.	.
8BB-/J	.	16b-\	16dd\	.	.	.	.
.	.	16cc\JJ	16ee-\JJ	.	.	.	.
=7	=7	=7	=7	=7	=7	=7	=7
4BB-/	.	8dd\L	8ff\L	0r	.	0r	.
.	.	16a\L	16cc\L	.	.	.	.
.	.	16b-\JJ	16dd\JJ	.	.	.	.
!	!	!LO:LB:g=original	!	!	!	!	!
8r	.	16a/LL	16cc\LL	.	.	.	.
.	.	16b-/	16dd\	.	.	.	.
8F\	.	16a/	16cc\	.	.	.	.
.	.	16b-/JJ	16dd\JJ	.	.	.	.
4BB-/	.	8cc\L	8ee-\L	.	.	.	.
.	.	16dd\L	16b-\L	.	.	.	.
.	.	16ee-\JJ	16cc\JJ	.	.	.	.
!	!	!	!LO:LB:g=original	!	!	!	!
8r	.	16dd\LL	16b-\LL	.	.	.	.
.	.	16ee-\	16cc\	.	.	.	.
8F\	.	16dd\	16b-\	.	.	.	.
.	.	16ee-\JJ	16cc\JJ	.	.	.	.
=8	=8	=8	=8	=8	=8	=8	=8
4F\	.	8ff\L	8dd\L	.	.	.	.
.	.	16cc\L	16a\L	.	.	.	.
.	.	16dd\JJ	16b-\JJ	.	.	.	.
8r	.	16cc\LL	16a\LL	.	.	.	.
.	.	16dd\	16b-\	.	.	.	.
8F\	.	16cc\	16a\	.	.	.	.
.	.	16dd\JJ	16b-\JJ	.	.	.	.
8F\L	.	8ee-\L	8cc\L	.	.	.	.
8G\	.	16a\L	16cc\L	.	.	.	.
.	.	16b-\JJ	16b-\JJ	.	.	.	.
8A\	6	16a\LL	16cc\LL	.	.	.	.
.	.	16b-\	(>16dd\	.	.	.	.
8F\J	.	16a\	16cc\)	.	.	.	.
.	.	16b-\JJ	16dd\JJ	.	.	.	.
=9	=9	=9	=9	=9	=9	=9	=9
*	*^	*	*	*	*	*	*
8c\L	.	.	8cc\L	8ee-\L	1r	.	1r	.
8B-\	.	.	16cc\L	16ee-\L	.	.	.	.
.	.	.	16b-\JJ	16dd\JJ	.	.	.	.
8A\	.	.	16cc\LL	16ee-\LL	.	.	.	.
.	.	.	(>16b-\	(>16dd\	.	.	.	.
8F\J	.	.	16dd\)	16ff\)	.	.	.	.
.	.	.	16cc\JJ	16ee-\JJ	.	.	.	.
!LO:LB:g=original	!	!	!	!	!	!	!	!
!LO:TX:a:t=P:mixed beam:problem	!	!	!	!	!	!	!	!
8B-\L	.	.	8b-/L	8dd\L	.	.	.	.
8E-\	6 5	.	16a/L	16cc\L	.	.	.	.
.	.	.	16g/JJ	16b-\JJ	.	.	.	.
8F\	1	3	8f/L	8a/L	.	.	.	.
8FF/J	.	.	8e-/J	8a/J	.	.	.	.
*	*v	*v	*	*	*	*	*	*
=10	=10	=10	=10	=10	=10	=10	=10
8BB-/	.	8d/	8b-\	8r	.	8r	.
8r	.	8r	8r	16b-\LL	Dzie-	16dd\LL	Dzie-
.	.	.	.	16cc\JJ	.	16ee-\JJ	.
4r	.	4r	4r	8dd\	-ci-	8ff\	-ci-
.	.	.	.	8a\	-no	8cc\	-no
8BB-/L	.	2r	2r	8b-\	Bo-	8dd\	Bo-
8C/	.	.	.	8f/	-ze	8b-\	-ze
8D/	6	.	.	8r	.	8r	.
8BB-/J	.	.	.	8cc\	wzto-	8ee-\	wzto-
!	!	!LO:LB:g=original	!	!	!	!	!
=11	=11	=11	=11	=11	=11	=11	=11
*	*^	*	*	*	*	*	*
8BB-/L	.	.	00r	00r	8b-\	-bie	8dd\	-bie
8E-/	6 5	.	.	.	8cc\	zło-	16cc\LL	zło-
.	.	.	.	.	.	.	16b-\JJ	.
!	!	!	!	!	!	!	!LO:LB:g=original	!
8F/	.	.	.	.	4a\	-zo-	8cc\	-zo-
8FF/J	1	3	.	.	.	.	16b-\LL	.
.	.	.	.	.	.	.	16a\JJ	.
!	!	!	!	!	!LO:LB:g=original	!	!	!
8BB-/L	.	.	.	.	8b-\	-na	8b-\	-na
8BB-/	.	.	.	.	16b-\LL	Cze-	16dd\LL	Cze-
.	.	.	.	.	16cc\JJ	.	16ee-\JJ	.
8BB-/	.	.	.	.	16b-\LL	-muſz	16dd\LL	-muſz
.	.	.	.	.	16cc\JJ	.	16ee-\JJ	.
8BB-/J	.	.	.	.	16b-\LL	ſpa-	16dd\LL	ſpa-
.	.	.	.	.	16cc\JJ	.	16ee-\JJ	.
*	*v	*v	*	*	*	*	*	*
=12	=12	=12	=12	=12	=12	=12	=12
8D/L	6	.	.	4.dd\	-nia-	4.ff\	-nia-
8C/	.	.	.	.	.	.	.
8D/	.	.	.	.	.	.	.
8BB-/J	.	.	.	16cc\LL	-łosć	16ee-\LL	-łosć
.	.	.	.	16b-\JJ	.	16dd\JJ	.
8F\L	6_	.	.	8r	.	8r	.
8F\	.	.	.	8a\	two-	8cc\	two-
8F\	.	.	.	16a\LL	-ia	16cc\LL	-ia
.	.	.	.	16b-\JJ	.	16dd\JJ	.
8F\J	7	.	.	16a\LL	znisz-	16cc\LL	znisz-
.	.	.	.	16b-\JJ	.	16dd\JJ	.
=13	=13	=13	=13	=13	=13	=13	=13
8c\L	.	.	.	4.cc\	-czo-	4.ee-\	-czo-
8B-\	.	.	.	.	.	.	.
8A\	.	.	.	.	.	.	.
8F\J	.	.	.	16b-\LL	-na	16dd\LL	-na
.	.	.	.	16a\JJ	.	16cc\JJ	.
!LO:TX:a:t=P:mixed beam:problem	!	!	!	!	!	!	!
8B-\L	.	.	.	8r	.	8r	.
8BB-/	.	.	.	8dd\	Cze-	8b-\	Cze-
8BB-/	.	.	.	16dd\LL	-muſz	16b-\LL	-muſz
.	.	.	.	16ee-\JJ	.	16cc\JJ	.
8B-\J	.	.	.	16dd\LL	ſpa-	16b-\LL	ſpa-
.	.	.	.	16ee-\JJ	.	16cc\JJ	.
!LO:LB:g=original	!	!	!	!	!	!	!
=14	=14	=14	=14	=14	=14	=14	=14
8d\L	.	.	.	4.ff\	-nia-	4.dd\	-nia-
8c\	.	.	.	.	.	.	.
8d\	.	.	.	.	.	.	.
!	!	!	!	!LO:LB:g=original	!	!	!
8B-\J	.	.	.	16ee-\LL	-łosć	16cc\LL	-łosć
.	.	.	.	16dd\JJ	.	16b-\JJ	.
!	!	!	!	!	!	!LO:LB:g=original	!
8F\L	6_	.	.	8r	.	8r	.
8F\	.	.	.	8cc\	two-	8a\	two-
8F\	.	.	.	16cc\LL	-ia	16a\LL	-ia
.	.	.	.	16dd\JJ	.	16b-\JJ	.
8F\J	7	.	.	16cc\LL	znisz-	16a\LL	zniſz-
.	.	.	.	16dd\JJ	.	16b-\JJ	.
=15	=15	=15	=15	=15	=15	=15	=15
*	*^	*	*	*	*	*	*
8c\L	.	.	1r	1r	4.ee-\	-czo-	4.cc\	-czo-
8B-\	.	.	.	.	.	.	.	.
8A\	.	.	.	.	.	.	.	.
8F\J	.	.	.	.	16dd\LL	-na	16b-\LL	-na
.	.	.	.	.	16cc\JJ	.	16a\JJ	.
!LO:TX:a:t=P:mixed beam:problem	!	!	!	!	!	!	!	!
8B-\L	.	.	.	.	8b-\L	zniſz-	8dd\L	zniſz-
8E-\	.	.	.	.	8cc\J	.	8ee-\J	.
8F\	.	.	.	.	4a\	-czo-	4cc\	-czo-
8FF/J	1	3	.	.	.	.	.	.
*	*v	*v	*	*	*	*	*	*
=16	=16	=16	=16	=16	=16	=16	=16
8BB-/L	.	8r	8r	4b-\	-na	4b-\	-na
8BB-/	.	8b-/	8dd\	.	.	.	.
8BB-/	.	16b-/LL	16dd\LL	4r	.	4r	.
.	.	16cc/	16ee-\	.	.	.	.
8BB-/J	.	16b-/	16dd\	.	.	.	.
.	.	16cc/JJ	16ee-\JJ	.	.	.	.
!	!	!	!LO:LB:g=original	!	!	!	!
8D/L	.	4.dd\	4.ff\	2r	.	2r	.
8C/	.	.	.	.	.	.	.
8D/	.	.	.	.	.	.	.
8BB-/J	.	16cc\LL	16ee-\LL	.	.	.	.
.	.	16b-\JJ	16dd\JJ	.	.	.	.
=17	=17	=17	=17	=17	=17	=17	=17
8F\L	6	8cc\L	8ee-\L	0r	.	0r	.
8F\	7	16a\L	16cc\L	.	.	.	.
.	.	16b-\JJ	16dd\JJ	.	.	.	.
8F\	.	16a/LL	16cc\LL	.	.	.	.
.	.	16b-/	16dd\	.	.	.	.
8F\J	.	16a/	16cc\	.	.	.	.
.	.	16b-/JJ	16dd\JJ	.	.	.	.
8c\L	.	4.cc\	4.ee-\	.	.	.	.
8B-\	.	.	.	.	.	.	.
8A\	.	.	.	.	.	.	.
8F\J	.	16b-\LL	16dd\LL	.	.	.	.
.	.	16a\JJ	16cc\JJ	.	.	.	.
=18	=18	=18	=18	=18	=18	=18	=18
!LO:TX:a:t=P:mixed beam:problem	!	!	!	!	!	!	!
8B-\L	.	8b-\L	8dd\L	.	.	.	.
8BB-/	.	8dd\J	8b-\J	.	.	.	.
8BB-/	.	16dd\LL	16b-\LL	.	.	.	.
.	.	16ee-\	16cc\	.	.	.	.
8B-\J	.	16dd\	16b-\	.	.	.	.
.	.	16ee-\JJ	16cc\JJ	.	.	.	.
!LO:LB:g=original	!	!	!	!	!	!	!
8d\L	.	4.ff\	4.dd\	.	.	.	.
8c\	.	.	.	.	.	.	.
8d\	.	.	.	.	.	.	.
8B-\J	.	16ee-\LL	16cc\LL	.	.	.	.
.	.	16dd\JJ	16b-\JJ	.	.	.	.
=19	=19	=19	=19	=19	=19	=19	=19
8F\L	6_	8ee-\L	8cc\L	1r	.	1r	.
8F\	.	8cc\J	8a\J	.	.	.	.
8F\	.	16cc\LL	16a\LL	.	.	.	.
.	.	16dd\	16b-\	.	.	.	.
8F\J	7	16cc\	16a\	.	.	.	.
.	.	16dd\JJ	16b-\JJ	.	.	.	.
!	!	!LO:LB:g=original	!	!	!	!	!
8c\L	.	4.ee-\	4.cc\	.	.	.	.
8B-\	.	.	.	.	.	.	.
8A\	.	.	.	.	.	.	.
8F\J	.	16dd\LL	16b-\LL	.	.	.	.
.	.	16cc\JJ	16a\JJ	.	.	.	.
=20	=20	=20	=20	=20	=20	=20	=20
*	*^	*	*	*	*	*	*
!LO:TX:a:t=P:mixed beam:problem	!	!	!	!	!	!	!	!
8B-\L	.	.	16b-\LL	16dd\LL	2r	.	2r	.
.	.	.	16dd\	16ff\	.	.	.	.
8E-\	6 5	.	16cc\	16ee-\	.	.	.	.
.	.	.	16b-\JJ	16dd\JJ	.	.	.	.
8F\	.	.	8a/L	8cc\L	.	.	.	.
8FF/J	1	3	8f/J	8cc\J	.	.	.	.
4BB-/	.	.	4d/	4b-\	8r	.	8r	.
.	.	.	.	.	8f\	Za	8f\	Za
8r	.	.	4r	4r	8b-\	grze-	8b-\	grze-
8F\	.	.	.	.	8a\	-chy	8cc\	-chy
!	!	!	!	!LO:LB:g=original	!	!	!	!
*	*v	*v	*	*	*	*	*	*
=21	=21	=21	=21	=21	=21	=21	=21
8BB-/L	.	2r	2r	8b-\	mo-	8dd\	mo-
8C/	.	.	.	8cc\	-ie	8ee-\	-ie
!	!	!	!	!LO:LB:g=original	!	!	!
8D/	.	.	.	16dd\LL	pła-	16ff\LL	pła-
.	.	.	.	16cc\JJ	.	16ee-\JJ	.
!	!	!	!	!	!	!LO:LB:g=original	!
8E-/J	.	.	.	16ee-\	-czu	16gg\	-czu
.	.	.	.	16dd\	ſtru-	16ff\	ſtru-
4BB-/	.	4r	8r	8dd\	-mie-	8ff\	-mie-
.	.	.	8f/L	8b-\	-nie	8dd\	-nie
8r	.	8r	8b-/	4r	.	4r	.
8F\	.	8f/	8cc/J	.	.	.	.
=22	=22	=22	=22	=22	=22	=22	=22
4BB-/	.	8b-\L	8dd\L	0r	.	0r	.
.	.	8b-\	8dd\	.	.	.	.
8r	.	8b-\	8dd\	.	.	.	.
8F\	.	8cc\J	8ee-\J	.	.	.	.
8BB-/L	.	8dd\L	8ff\L	.	.	.	.
8C/	.	8dd\J	8ff\J	.	.	.	.
8D/	.	16dd\LL	16ff\LL	.	.	.	.
.	.	(>16cc\	(>16ee-\	.	.	.	.
8E-/J	.	16ee-\)	16gg\)	.	.	.	.
.	.	16dd\JJ	16ff\JJ	.	.	.	.
!LO:LB:g=original	!	!	!	!	!	!	!
=23	=23	=23	=23	=23	=23	=23	=23
4BB-/	.	8dd\L	8ff\L	.	.	.	.
.	.	8ff\J	8dd\J	.	.	.	.
8r	.	16ff\LL	16dd\LL	.	.	.	.
.	.	(>16ee-\	(>16cc\	.	.	.	.
8E-/	.	16gg\)	16ee-\)	.	.	.	.
.	.	16ff\JJ	16dd\JJ	.	.	.	.
4BB-/	.	8ff\L	8dd\L	.	.	.	.
.	.	8dd\J	8b-\J	.	.	.	.
!	!	!LO:LB:g=original	!	!	!	!	!
8r	.	16dd\LL	16ff\LL	.	.	.	.
.	.	(>16b-\	(>16ee-\	.	.	.	.
8E-/	.	16ee-\)	16gg\)	.	.	.	.
.	.	16dd\JJ	16ff\JJ	.	.	.	.
=24	=24	=24	=24	=24	=24	=24	=24
*	*^	*	*	*	*	*	*
8BB-/L	6 5	.	8dd\L	8ff\L	2r	.	2r	.
8E-/	.	.	16cc\L	16ee-\L	.	.	.	.
.	.	.	16b-\JJ	16dd\JJ	.	.	.	.
8F/	.	.	8a/L	8cc\L	.	.	.	.
8FF/J	1	3	8f/J	8cc\J	.	.	.	.
4BB-/	.	.	4d/	4b-\	8r	.	8r	.
.	.	.	.	.	8f\	Za	8f\	Za
8r	.	.	4r	4r	8b-\	grze-	8b-\	grze-
8F\	.	.	.	.	8a\	-chy	8cc\	-chy
*	*v	*v	*	*	*	*	*	*
=25	=25	=25	=25	=25	=25	=25	=25
8BB-/L	.	1r	1r	8b-\	mo-	8dd\	mo-
8C/	.	.	.	8cc\	-ie	8ee-\	-ie
8D/	.	.	.	16dd\LL	pła-	16ff\LL	pła-
.	.	.	.	16cc\JJ	.	16ee-\JJ	.
8E-/J	.	.	.	16ee-\	-czu	16gg\	-czu
.	.	.	.	16dd\	ſstru-	16ff\	ſstru-
8BB-/L	.	.	.	8dd\	-mie-	8ff\	-mie-
8C/	.	.	.	8b-\	-nie	8dd\	-nie
8D/	6	.	.	4r	.	4r	.
8BB-/J	.	.	.	.	.	.	.
!	!	!	!LO:LB:g=original	!LO:LB:g=original	!	!LO:LB:g=original	!
=26	=26	=26	=26	=26	=26	=26	=26
8BB-\L	.	2r	2r	8dd\	Ga-	8ff\	Ga-
8D\	6	.	.	16cc\LL	-szą	16ee-\LL	.
.	.	.	.	16b-\JJ	.	16dd\JJ	.
8C\	.	.	.	8cc\	god-	8ee-\	-szą
8F\J	7	.	.	16b-\LL	.	16dd\LL	god-
.	.	.	.	16a\JJ	.	16cc\JJ	.
8BB-/L	.	8dd\L	8ff\L	8b-\	-noſ-	8dd\	-nos-
8D/	6	16cc\L	16ee-\L	8f/	-ci	8b-\	-ci
.	.	16b-\JJ	16dd\JJ	.	.	.	.
8C/	.	8cc\L	8ee-\L	4r	.	4r	.
8F/J	7	16b-\L	16dd\L	.	.	.	.
.	.	16a\JJ	16cc\JJ	.	.	.	.
!LO:LB:g=original	!	!	!	!	!	!	!
=27	=27	=27	=27	=27	=27	=27	=27
8BB-\L	.	8b-\L	8dd\L	8dd\	Ga-	8ff\	Gaſ-
8D\	6	8f\J	8b-\J	16cc\LL	.	16ee-\LL	.
.	.	.	.	16b-\JJ	.	16dd\JJ	.
8C\	.	4r	4r	8cc\	-szą	8ee-\	-ſzą
8F\J	7	.	.	16b-\LL	god-	16dd\LL	god-
.	.	.	.	16a\JJ	.	16cc\JJ	.
8BB-/L	.	2r	2r	8b-\	-noſ-	8dd\	-nos-
8C/	.	.	.	8f/	-ci	8b-\	-ci
8D/	6	.	.	8r	.	8r	.
8C/J	.	.	.	8cc\	two-	8ee-\	two-
=28	=28	=28	=28	=28	=28	=28	=28
*	*^	*	*	*	*	*	*
8BB-/L	.	.	2r	2r	8b-\	-iey	8dd\	-iey
8E-/	6 5	.	.	.	16cc\LL	pro-	16cc\LL	pro-
.	.	.	.	.	16b-\JJ	.	16b-\JJ	.
8F/	.	.	.	.	4a\	-mie-	8cc\	-mie-
8FF/J	1	3	.	.	.	.	16b-\LL	.
.	.	.	.	.	.	.	16a\JJ	.
!	!	!	!	!	!	!	!LO:LB:g=original	!
4BB-/	.	.	8dd\L	8b-\L	4b-\	-nie	4b-\	-nie
.	.	.	8gg\	8bb-\	.	.	.	.
8r	.	.	8ff\	8aa\	4r	.	4r	.
8E-\	.	.	8ee-\J	8gg\J	.	.	.	.
!	!	!	!	!	!LO:LB:g=original	!	!	!
*	*v	*v	*	*	*	*	*	*
=29	=29	=29	=29	=29	=29	=29	=29
8BB-/L	.	8dd\L	8ff\L	00r	.	00r	.
8E-/	.	8ee-\	8gg\	.	.	.	.
8D/	.	8dd\	8ff\	.	.	.	.
8C/J	.	8cc\J	8ee-\J	.	.	.	.
4BB-/	.	8b-\L	8dd\L	.	.	.	.
.	.	8bb-\	8gg\	.	.	.	.
8r	.	8aa\	8ff\	.	.	.	.
8E-\	.	8gg\J	8ee-\J	.	.	.	.
!	!	!LO:LB:g=original	!	!	!	!	!
=30	=30	=30	=30	=30	=30	=30	=30
8BB-/L	.	8ff\L	8dd\L	.	.	.	.
8E-/	.	8gg\	8ee-\	.	.	.	.
8D/	.	8ff\	8dd\	.	.	.	.
8C/J	.	8ee-\J	8cc\J	.	.	.	.
8BB-/L	.	8dd\L	8b-\L	.	.	.	.
8C/	.	8dd\	8ff\	.	.	.	.
8D/	6	8dd\	8ff\	.	.	.	.
8BB-/J	.	8dd\J	8ff\J	.	.	.	.
!LO:LB:g=original	!	!	!	!	!	!	!
=31	=31	=31	=31	=31	=31	=31	=31
8BB-/L	.	(>16dd\LL	(>16ff\LL	.	.	.	.
.	.	16cc\JJ)	16ee-\JJ)	.	.	.	.
8E-/	.	(>16ee-\LL	(>16gg\LL	.	.	.	.
.	.	16dd\JJ)	16ff\JJ)	.	.	.	.
8D/	.	8dd\L	8ff\L	.	.	.	.
8BB-/J	.	16cc\L	16ee-\L	.	.	.	.
.	.	16b-\JJ	16dd\JJ	.	.	.	.
!	!	!	!LO:LB:g=original	!	!	!	!
8C/L	.	8a/L	8cc\L	.	.	.	.
8BB-/	.	8cc/	8ee-\	.	.	.	.
8C/	.	8cc/	8ee-\	.	.	.	.
8FF/J	.	8cc/J	8ee-\J	.	.	.	.
=32	=32	=32	=32	=32	=32	=32	=32
*	*^	*	*	*	*	*	*
8c\L	.	.	16cc\LL	16ee-\LL	.	.	.	.
.	.	.	(>16b-\	(>16dd\	.	.	.	.
8B-\	.	.	16dd\)	16ff\)	.	.	.	.
.	.	.	16cc\JJ	16ee-\JJ	.	.	.	.
8A\	.	.	8cc\L	8ee-\L	.	.	.	.
8F\J	.	.	(>16b-\L	16dd\L	.	.	.	.
.	.	.	16a\JJ)	16cc\JJ	.	.	.	.
!LO:TX:a:t=P:mixed beam:problem	!	!	!	!	!	!	!	!
8B-\L	.	.	8b-/L	8dd\L	.	.	.	.
8E-\	.	.	16a/L	16cc\L	.	.	.	.
.	.	.	16g/JJ	16b-\JJ	.	.	.	.
8F\	.	.	8f/L	8.a/L	.	.	.	.
8FF/J	1	3	8e-/J	.	.	.	.	.
.	.	.	.	16a/Jk	.	.	.	.
*	*v	*v	*	*	*	*	*	*
=33	=33	=33	=33	=33	=33	=33	=33
4BB-/	.	4d/	4b-/	2r	.	8r	.
.	.	.	.	.	.	8b-\	Cia-
8r	.	4r	4r	.	.	16b-\LL	-łecz-
.	.	.	.	.	.	16cc\	.
8F\	.	.	.	.	.	16b-\	.
.	.	.	.	.	.	16cc\JJ	.
4BB-/	.	2r	2r	8r	.	8dd\L	.
.	.	.	.	8b-\	Cia-	16dd\L	.
.	.	.	.	.	.	16ee-\JJ	.
8r	.	.	.	16b-\LL	-łecz-	16dd\LL	.
.	.	.	.	16cc\	.	16ee-\	.
8F\	.	.	.	16b-\	.	16dd\	.
.	.	.	.	16cc\JJ	.	16ee-\JJ	.
=34	=34	=34	=34	=34	=34	=34	=34
!LO:TX:a:t=P:mixed beam:problem	!	!	!	!	!	!	!
8B-\L	.	1r	1r	8dd\	.	8ff\	.
8BB-/	.	.	.	16b-\LL	-ko	16dd\LL	-ko
.	.	.	.	16cc\JJ	.	16ee-\JJ	.
8D/	6	.	.	8dd\	Swię-	8ff\	ſwię-
8BB-/J	.	.	.	8b-\	-te	8dd\	-te
!LO:TX:a:t=P:mixed beam:problem	!	!	!	!	!	!	!
8C/L	.	.	.	8r	.	8r	.
8c\	.	.	.	8cc\	zim-	8ee-\	zim-
8A\	.	.	.	8b-\	-nem	8dd\	-nem
8F\J	.	.	.	8a\	zwa-	8cc\	zwa-
!LO:LB:g=original	!	!LO:LB:g=original	!	!	!	!	!
=35	=35	=35	=35	=35	=35	=35	=35
!LO:TX:a:t=P:mixed beam:problem	!	!	!	!	!	!	!
8B-\L	.	2r	8r	8b-\	-rzo-	8dd\	-rzo-
8BB-/J	.	.	8b-/	8f/	-ne	8b-\	-ne
4r	.	.	16b-/LL	4r	.	4r	.
.	.	.	16cc/	.	.	.	.
.	.	.	16b-/	.	.	.	.
.	.	.	16cc/JJ	.	.	.	.
!	!	!	!	!	!	!LO:LB:g=original	!
4BB-/	.	8r	8dd\L	2r	.	2r	.
.	.	8b-\	16dd\L	.	.	.	.
.	.	.	16ee-\JJ	.	.	.	.
8r	.	16b-\LL	16dd\LL	.	.	.	.
.	.	(>16cc\	16ee-\	.	.	.	.
8F\	.	16b-\)	16dd\	.	.	.	.
.	.	16cc\JJ	16ee-\JJ	.	.	.	.
=36	=36	=36	=36	=36	=36	=36	=36
8BB-/L	.	8dd\L	8ff\L	0r	.	0r	.
8C/	.	8dd\J	8ff\J	.	.	.	.
8D/	.	16dd\LL	(>16ff\LL	.	.	.	.
.	.	(>16cc\	16ee-\	.	.	.	.
8E-/J	.	16ee-\)	16gg\)	.	.	.	.
.	.	16dd\JJ	16ff\JJ	.	.	.	.
!	!	!	!LO:LB:g=original	!	!	!	!
4BB-/	.	8dd\L	8ff\L	.	.	.	.
.	.	8ff\J	8dd\J	.	.	.	.
8r	.	16ff\LL	(>16dd\LL	.	.	.	.
.	.	(>16ee-\	16cc\	.	.	.	.
8E-/	.	16gg\)	16ee-\)	.	.	.	.
.	.	16ff\JJ	16dd\JJ	.	.	.	.
=37	=37	=37	=37	=37	=37	=37	=37
*	*^	*	*	*	*	*	*
4BB-/	.	.	8ff\L	8dd\L	.	.	.	.
.	.	.	8dd\J	8ff\J	.	.	.	.
8r	.	.	16dd\LL	16ff\LL	.	.	.	.
.	.	.	(>16cc\	(>16ee-\	.	.	.	.
8E-/	.	.	16ee-\)	16gg\)	.	.	.	.
.	.	.	16dd\JJ	16ff\JJ	.	.	.	.
8BB-/L	.	.	8dd\L	8ff\L	.	.	.	.
8E-/	.	.	16cc\L	16ee-\L	.	.	.	.
.	.	.	16b-\JJ	16dd\JJ	.	.	.	.
8F/	.	.	8a/L	8cc\L	.	.	.	.
8FF/J	1	3	8f/J	8cc\J	.	.	.	.
!	!	!	!	!	!LO:LB:g=original	!	!	!
*	*v	*v	*	*	*	*	*	*
=38	=38	=38	=38	=38	=38	=38	=38
4BB-/	.	8d/	8b-\	2r	.	8r	.
.	.	8r	8r	.	.	8b-\	Cia-
8r	.	4r	4r	.	.	16b-\LL	-łecz-
.	.	.	.	.	.	16cc\	.
8F\	.	.	.	.	.	16b-\	.
.	.	.	.	.	.	16cc\JJ	.
4B-\	.	2r	2r	8r	.	8dd\L	.
.	.	.	.	8b-\	Cia-	16dd\L	.
.	.	.	.	.	.	16ee-\JJ	.
8r	.	.	.	16b-\LL	-łecz-	16dd\LL	.
.	.	.	.	16cc\	.	16ee-\	.
8F\	.	.	.	16b-\	.	16dd\	.
.	.	.	.	16cc\JJ	.	16ee-\JJ	.
!LO:PB:g=original	!	!	!	!	!	!	!
=39	=39	=39	=39	=39	=39	=39	=39
!LO:TX:a:t=P:mixed beam:problem	!	!	!	!	!	!	!
8B-\L	.	0r	0r	8dd\	.	8ff\	.
8BB-/	.	.	.	16b-\LL	-ko	16dd\LL	-ko
.	.	.	.	16cc\JJ	.	16ee-\JJ	.
8D/	6	.	.	8dd\	Swię-	8ff\	ſwię-
8BB-/J	.	.	.	8b-\	-te	8dd\	-te
!LO:TX:a:t=P:mixed beam:problem	!	!	!	!	!	!	!
8C/L	.	.	.	8r	.	8r	.
8c\	.	.	.	8cc\	zim-	8ee-\	zim-
8A\	.	.	.	8b-\	-nem	8dd\	-nem
8F\J	.	.	.	8a\	zwa-	8cc\	zwa-
=40	=40	=40	=40	=40	=40	=40	=40
!LO:TX:a:t=P:mixed beam:problem	!	!	!	!	!	!	!
8B-\L	.	.	.	8b-\	-rzo-	8dd\	-rzo-
8BB-/	.	.	.	8f/	-ne	8b-\	-ne
!	!	!	!	!	!	!LO:LB:g=original	!
8D/	.	.	.	8r	.	8r	.
8F/J	.	.	.	8f/	Za	8cc\	Za
8BB-/L	.	.	.	8b-\	ſer-	8dd\	ſer-
8C/	.	.	.	8cc\	-ce	8ee-\	-ce
8D/	.	.	.	8dd\	mo-	8ff\	mo-
8E-/J	.	.	.	8ee-\	-ie	8gg\	-ie
!	!	!	!	!LO:LB:g=original	!	!	!
=41	=41	=41	=41	=41	=41	=41	=41
*	*^	*	*	*	*	*	*
8c\L	.	.	1r	1r	8a\L	gnie-	8cc\L	gnie-
8B-\	.	.	.	.	8b-\J	.	8dd\J	.
8A\	.	.	.	.	8cc\	-wem	8ee-\	-wem
8F\J	.	.	.	.	8dd\	ſpa-	8ff\	ſpa-
!LO:TX:a:t=P:mixed beam:problem	!	!	!	!	!	!	!	!
8B-\L	.	.	.	.	8b-\L	-lo-	8dd\L	-lo-
8E-\	6 5	.	.	.	16a\L	.	16cc\L	.
.	.	.	.	.	16g\JJ	.	16b-\JJ	.
8F\	.	.	.	.	8f/L	.	4a\	.
8FF/J	1	3	.	.	8e-/J	.	.	.
!	!	!	!LO:LB:g=original	!	!	!	!	!
*	*v	*v	*	*	*	*	*	*
=42	=42	=42	=42	=42	=42	=42	=42
!	!	!LO:N:vis=8	!LO:N:vis=8	!	!	!	!
8BB-/L	.	16r	16r	4d/	-ne	4b-\	-ne
.	.	16dd\LL	16ff\LL	.	.	.	.
8C/	.	16dd\	16ff\	.	.	.	.
.	.	16dd\JJ	16ff\JJ	.	.	.	.
8D/	6	16dd\LL	16ff\LL	4r	.	4r	.
.	.	16dd\	16ff\	.	.	.	.
8BB-/J	.	16dd\	16ff\	.	.	.	.
.	.	16dd\JJ	16ff\JJ	.	.	.	.
8D/L	.	16dd\LL	16ff\LL	2r	.	2r	.
.	.	16cc\	16ee-\	.	.	.	.
8C/	.	16cc\	16ee-\	.	.	.	.
.	.	16cc\JJ	16ee-\JJ	.	.	.	.
8C/	.	16cc\LL	16ee-\LL	.	.	.	.
.	.	16cc\	16ee-\	.	.	.	.
8C/J	.	16cc\	16ee-\	.	.	.	.
.	.	16cc\JJ	16ee-\JJ	.	.	.	.
!O:LB:g=original	!	!	!LO:LB:g=original	!	!	!	!
=43	=43	=43	=43	=43	=43	=43	=43
8D/L	.	16cc\LL	16ee-\LL	0r	.	0r	.
.	.	16ff\	16dd\	.	.	.	.
8C/	.	16ff\	16dd\	.	.	.	.
.	.	16ff\JJ	16dd\JJ	.	.	.	.
8D/	.	16ff\LL	16dd\LL	.	.	.	.
.	.	16ff\	16dd\	.	.	.	.
8BB-/J	.	16ff\	16dd\	.	.	.	.
.	.	16ff\JJ	16dd\JJ	.	.	.	.
8F\L	7_	16ff\LL	16dd\LL	.	.	.	.
.	.	16ee-\	16cc\	.	.	.	.
8F\	.	16ee-\	16cc\	.	.	.	.
.	.	16ee-\JJ	16cc\JJ	.	.	.	.
8F\	.	16ee-\LL	16cc\LL	.	.	.	.
.	.	16ee-\	16cc\	.	.	.	.
8F\J	X	16ee-\	16cc\	.	.	.	.
.	.	16ee-\JJ	16cc\JJ	.	.	.	.
=44	=44	=44	=44	=44	=44	=44	=44
!LO:TX:a:t=P:mixed beam:problem	!	!	!	!	!	!	!
8B-\L	.	8dd\L	8dd\L	.	.	.	.
8BB-/	.	16dd\L	16ff\L	.	.	.	.
.	.	16cc\JJ	16ee-\JJ	.	.	.	.
8D/	.	8dd\L	8ff\L	.	.	.	.
8E-/J	.	8ee-\J	8gg\J	.	.	.	.
8c\L	.	8a/L	8cc\L	.	.	.	.
8B-\	.	16cc/L	16ee-\L	.	.	.	.
.	.	16b-/JJ	16dd\JJ	.	.	.	.
8A\	.	8cc/L	8ee-\L	.	.	.	.
8F\J	.	8dd/J	8ff\J	.	.	.	.
!	!	!LO:LB:g=original	!	!	!	!	!
=45	=45	=45	=45	=45	=45	=45	=45
*	*^	*	*	*	*	*	*
!LO:TX:a:t=P:mixed beam:problem	!	!	!	!	!	!	!	!
8B-\L	.	.	8b-/L	8dd\L	2r	.	2r	.
8E-\	6 5	.	16a/L	16cc\L	.	.	.	.
.	.	.	16g/JJ	16b-\JJ	.	.	.	.
8F\	.	.	8f/L	8a/L	.	.	.	.
8FF/J	1	3	8e-/J	8a/J	.	.	.	.
4BB-/	.	.	8d/	8b-/	8r	.	8r	.
.	.	.	8r	8r	16b-\LL	Za	16dd\LL	Za
.	.	.	.	.	16cc\JJ	.	16ee-\JJ	.
!	!	!	!	!	!	!	!LO:LB:g=original	!
8r	.	.	4r	4r	8dd\	zbyt-	8ff\	zbyt-
8F\	.	.	.	.	8a\	-ki	8cc\	-ki
*	*v	*v	*	*	*	*	*	*
=46	=46	=46	=46	=46	=46	=46	=46
!LO:TX:a:t=P:mixed beam:problem	!	!	!	!	!	!	!
8BB-/L	.	2r	2r	8b-\	nę-	8dd\	nę-
8B-\J	.	.	.	8f/	-dza	8b-\	-dza
16A\LL	.	.	.	4r	.	4r	.
16G\	.	.	.	.	.	.	.
16F\	.	.	.	.	.	.	.
16E-\JJ	.	.	.	.	.	.	.
8D/L	.	8r	8r	2r	.	2r	.
8BB-/J	.	16b-\LL	16dd\LL	.	.	.	.
.	.	16cc\JJ	16ee-\JJ	.	.	.	.
4r	.	8dd\L	8ff\L	.	.	.	.
.	.	8a\J	8cc\J	.	.	.	.
!LO:LB:g=original	!	!	!LO:LB:g=original	!LO:LB:g=original	!	!	!
=47	=47	=47	=47	=47	=47	=47	=47
4B-\	.	8b-\L	8dd\L	2r	.	2r	.
.	.	16dd\L	16b-\L	.	.	.	.
.	.	16ee-\JJ	16cc\JJ	.	.	.	.
8r	.	8ff\L	8dd\L	.	.	.	.
8F\	.	8cc\J	8a\J	.	.	.	.
4BB-/	.	8dd\	8b-\	8r	.	8r	.
.	.	8r	8r	16b-\LL	Za	16dd\LL	Za
.	.	.	.	16cc\JJ	.	16ee-\JJ	.
8r	.	4r	4r	8dd\	zbyt-	8ff\	zbyt-
8F\	.	.	.	8a\	-ki	8cc\	-ki
=48	=48	=48	=48	=48	=48	=48	=48
*	*^	*	*	*	*	*	*
8BB-/L	.	.	00r	00r	8b-\	nę-	8dd\	nę-
8C/	.	.	.	.	8f/	-dza	8b-\	-dza
8D/	.	.	.	.	8r	.	8r	.
8BB-/J	.	.	.	.	8cc\	Jak	8ee-\	Jak
!LO:TX:a:t=P:mixed beam:problem	!	!	!	!	!	!	!	!
8B-\L	.	.	.	.	16b-\LL	cięsz-	8dd\	cięsz-
.	.	.	.	.	16a\JJ	.	.	.
8F\	.	.	.	.	16g/LL	-kie	16cc\LL	-kie
.	.	.	.	.	16f/JJ	.	16b-\JJ	.
8F\	.	.	.	.	8f/L	Ka-	8cc\L	Ka-
8FF/J	1	3	.	.	8e-/J	.	8a\J	.
*	*v	*v	*	*	*	*	*	*
=49	=49	=49	=49	=49	=49	=49	=49
8BB-/L	.	.	.	8d/	-ry	8b-\	-ry
8BB-/	.	.	.	8b-\	za	8dd\	za
!	!	!	!	!	!	!LO:LB:g=original	!
8BB-/	.	.	.	16b-\LL	grze-	16dd\LL	grze-
.	.	.	.	16cc\	.	16ee-\	.
8BB-/J	.	.	.	16b-\	-chy	16dd\	-chy
.	.	.	.	16cc\JJ	.	16ee-\JJ	.
8D/L	.	.	.	4.dd\	mo-	4.ff\	mo-
8C/	.	.	.	.	.	.	.
8D/	.	.	.	.	.	.	.
8BB-/J	.	.	.	16cc\LL	-ie	16ee-\LL	-ie
.	.	.	.	16b-\JJ	.	16dd\JJ	.
!	!	!	!	!LO:LB:g=original	!	!	!
=50	=50	=50	=50	=50	=50	=50	=50
8F\L	7_	.	.	8r	.	8r	.
8F\	.	.	.	8a\	Cier-	8cc\	Cier-
8F\	.	.	.	16a\LL	-pisz	16cc\LL	-pisz
.	.	.	.	16b-\JJ	.	16dd\	.
8F\J	X	.	.	16a\LL	bez-	16cc\	bez-
.	.	.	.	16b-\JJ	.	16dd\JJ	.
8c\L	.	.	.	4.cc\	-mia-	4.ee-\	-mia-
8B-\	.	.	.	.	.	.	.
8A\	.	.	.	.	.	.	.
8F\J	.	.	.	16b-\LL	-ry	16dd\LL	-ry
.	.	.	.	16a\JJ	.	16cc\JJ	.
=51	=51	=51	=51	=51	=51	=51	=51
!LO:TX:a:t=P:mixed beam:problem	!	!	!	!	!	!	!
8B-\L	.	.	.	8r	.	8r	.
8BB-/	.	.	.	8dd\	Za	8b-\	Za
8D/	6	.	.	16dd\LL	grze-	16b-\LL	grze-
.	.	.	.	16ee-\JJ	.	16cc\	.
8BB-/J	.	.	.	16dd\LL	-chy	16b-\	-chy
.	.	.	.	16ee-\JJ	.	16cc\JJ	.
!LO:LB:g=original	!	!	!	!	!	!	!
8D/L	.	.	.	4.ff\	mo-	4.dd\	mo-
8C/	.	.	.	.	.	.	.
8D/	.	.	.	.	.	.	.
8BB-/J	.	.	.	16ee-\LL	-ie	16cc\LL	-ie
.	.	.	.	16dd\JJ	.	16b-\JJ	.
=52	=52	=52	=52	=52	=52	=52	=52
8F\L	7_	1r	1r	8r	.	8r	.
8F\	.	.	.	8cc\	Cier-	8a\	Cier-
8F\	.	.	.	16cc\LL	-pisz	16a\LL	-pisz
.	.	.	.	16dd\JJ	.	16b-\JJ	.
8F\J	X	.	.	16cc\LL	bez-	16a\LL	bez-
.	.	.	.	16dd\JJ	.	16b-\JJ	.
8c\L	.	.	.	4.ee-\	-mia-	4.cc\	-mia-
8B-\	.	.	.	.	.	.	.
8A\	.	.	.	.	.	.	.
8F\J	.	.	.	16dd\LL	-ry	16b-\LL	-ry
.	.	.	.	16cc\JJ	.	16a\JJ	.
!	!	!LO:SIC:o=Verte:v:t=w źródle po kresce taktowej przed łamanem strony	!	!	!	!	!
!	!	!LO:PB:g=original	!	!LO:PB:g=original	!	!LO:PB:g=original	!
=53	=53	=53	=53	=53	=53	=53	=53
*	*^	*	*	*	*	*	*
!LO:TX:a:t=P:mixed beam:problem	!	!	!	!	!	!	!	!
8B-\L	.	.	2r	2r	8b-\	Cier-	8dd\	Cier-
8E-\	.	.	.	.	16a\	-pisz	16cc\	-pisz
.	.	.	.	.	16g\	bez-	16b-\	bez-
8F\	.	.	.	.	8f/L	-mia-	4a\	-mia-
8FF/J	1	3	.	.	8e-/J	.	.	.
4BB-/	.	.	8r	8r	4d/	-ry	4b-\	-ry
.	.	.	16b-\LL	16dd\LL	.	.	.	.
.	.	.	16cc\JJ	16ee-\JJ	.	.	.	.
8r	.	.	8dd\L	8ff\L	4r	.	4r	.
8F\	.	.	8a\J	8cc\J	.	.	.	.
*	*v	*v	*	*	*	*	*	*
=54	=54	=54	=54	=54	=54	=54	=54
4BB-/	.	8b-\L	8dd\L	00r	.	00r	.
.	.	16dd\L	16b-\L	.	.	.	.
.	.	16ee-\JJ	16cc\JJ	.	.	.	.
8r	.	8ff\L	8dd\L	.	.	.	.
8F\	.	8cc\J	8a\J	.	.	.	.
8B-\L	.	4dd\	4b-\	.	.	.	.
16F\L	.	.	.	.	.	.	.
16G\JJ	.	.	.	.	.	.	.
16F\LL	.	4r	4r	.	.	.	.
16E-\	.	.	.	.	.	.	.
16D\	.	.	.	.	.	.	.
16C\JJ	.	.	.	.	.	.	.
!	!	!	!LO:SIC:o=Verte citto:v:t=w źródle po kresce taktowej przed łamanem strony	!	!	!	!
!	!	!	!LO:PB:g=original	!	!	!	!
=55	=55	=55	=55	=55	=55	=55	=55
8BB-/L	.	8r	8r	.	.	.	.
8C/	.	16b-\LL	16dd\LL	.	.	.	.
.	.	16cc\JJ	16ee-\JJ	.	.	.	.
8D/	6	16b-\LL	16dd\LL	.	.	.	.
.	.	16cc\	16ee-\	.	.	.	.
8BB-/J	.	16b-\	16dd\	.	.	.	.
.	.	16cc\JJ	16ee-\JJ	.	.	.	.
!LO:LB:g=original	!	!	!	!	!	!	!
8B-\L	.	8dd\L	8ff\L	.	.	.	.
8F\	.	16a\L	16cc\L	.	.	.	.
.	.	16b-\JJ	16dd\JJ	.	.	.	.
8F\	.	16a/LL	16cc\LL	.	.	.	.
.	.	16b-/	16dd\	.	.	.	.
8F\J	.	16a/	16cc\	.	.	.	.
.	.	16b-/JJ	16dd\JJ	.	.	.	.
=56	=56	=56	=56	=56	=56	=56	=56
8c\L	.	8cc\L	8ee-\L	.	.	.	.
8G\	.	16dd\L	16b-\L	.	.	.	.
.	.	16ee-\JJ	16cc\JJ	.	.	.	.
8G\	.	16dd\LL	16b-\LL	.	.	.	.
.	.	16ee-\	(>16cc\	.	.	.	.
8G\J	.	16dd\	16b-\)	.	.	.	.
.	.	16ee-\JJ	16cc\JJ	.	.	.	.
!	!	!LO:LB:g=original	!	!	!	!	!
8B-\L	.	8ff\L	8dd\L	.	.	.	.
8F\	.	16cc\L	16a\L	.	.	.	.
.	.	16dd\JJ	16b-\JJ	.	.	.	.
8F\	.	16cc\LL	16a\LL	.	.	.	.
.	.	16dd\	16b-\	.	.	.	.
8F\J	.	16cc\	16a\	.	.	.	.
.	.	16dd\JJ	16b-\JJ	.	.	.	.
=57	=57	=57	=57	=57	=57	=57	=57
8F\L	.	8ee-\L	8cc\L	.	.	.	.
8G\	.	16a\L	16cc\L	.	.	.	.
.	.	16g\JJ	16b-\JJ	.	.	.	.
8A\	.	16a\LL	16cc\LL	.	.	.	.
.	.	16b-\	16dd\	.	.	.	.
8F\J	.	16a\	16cc\	.	.	.	.
.	.	16b-\JJ	16dd\JJ	.	.	.	.
8c\L	.	8cc\L	8ee-\L	.	.	.	.
8B-\	.	16cc\L	16ee-\L	.	.	.	.
.	.	16b-\JJ	16dd\JJ	.	.	.	.
!	!	!	!LO:LB:g=original	!	!	!	!
8A\	.	16cc\LL	16ee-\LL	.	.	.	.
.	.	16b-\	(>16dd\	.	.	.	.
8F\J	.	16dd\	16ff\)	.	.	.	.
.	.	16cc\JJ	16ee-\JJ	.	.	.	.
=58	=58	=58	=58	=58	=58	=58	=58
*	*^	*	*	*	*	*	*
!LO:TX:a:t=P:mixed beam:problem	!	!	!	!	!	!	!	!
8B-\L	.	.	8b-/L	8dd\L	0r	.	0r	.
8E-\	.	.	16a/L	16cc\L	.	.	.	.
.	.	.	16g/JJ	16b-\JJ	.	.	.	.
8F\	.	.	8f/L	8a/L	.	.	.	.
8FF/J	1	3	8e-/J	8a/J	.	.	.	.
!	!	!	!LO:TX:a:t=P:mixed beam:problem	!	!	!	!	!
8BB-/L	.	.	8d/L	8b-\L	.	.	.	.
8C/	.	.	8dd\J	8ff\J	.	.	.	.
8D/	.	.	16dd\LL	16ff\LL	.	.	.	.
.	.	.	(>16cc\	(>16ee-\	.	.	.	.
8E-/J	.	.	16ee-\)	16gg\)	.	.	.	.
.	.	.	16dd\JJ	16ff\JJ	.	.	.	.
*	*v	*v	*	*	*	*	*	*
=59	=59	=59	=59	=59	=59	=59	=59
4BB-/	.	8dd\L	8ff\L	.	.	.	.
.	.	8ff\J	8dd\J	.	.	.	.
8r	.	(>16ff\LL	16dd\LL	.	.	.	.
.	.	16ee-\	(>16cc\	.	.	.	.
8E-\	.	16gg\	16ee-\)	.	.	.	.
.	.	16ff\JJ)	16dd\JJ	.	.	.	.
!	!	!LO:LB:g=original	!	!	!	!	!
4BB-/	.	8ff\L	8dd\L	.	.	.	.
.	.	8dd\J	8b-\J	.	.	.	.
8r	.	16dd\LL	16ff\LL	.	.	.	.
.	.	(>16cc\	(>16ee-\	.	.	.	.
8E-\	.	16ee-\)	16gg\)	.	.	.	.
.	.	16dd\JJ	16ff\JJ	.	.	.	.
!LO:LB:g=original	!	!	!	!	!	!	!
=60	=60	=60	=60	=60	=60	=60	=60
*	*^	*	*	*	*	*	*
8BB-/L	.	.	8dd\L	8ff\L	1r	.	1r	.
8E-/	.	.	16cc\L	16ee-\L	.	.	.	.
.	.	.	16b-\JJ	16dd\JJ	.	.	.	.
8F/	.	.	8f/L	8cc\L	.	.	.	.
8FF/J	1	3	8e-/J	8cc\J	.	.	.	.
4BB-/	.	.	4d/	8b-\	.	.	.	.
.	.	.	.	8r	.	.	.	.
4r	.	.	4r	4r	.	.	.	.
!LO:TX:a:t=P:w źródle ozdobiona kreska końcowa:problem	!	!	!LO:TX:a:t=P:w źródle ozdobiona kreska końcowa:problem	!LO:TX:a:t=P:w źródle ozdobiona kreska końcowa:problem	!LO:TX:a:t=P:w źródle ozdobiona kreska końcowa:problem	!	!LO:TX:a:t=P:w źródle ozdobiona kreska końcowa:problem	!
*	*v	*v	*	*	*	*	*	*
==	==	==	==	==	==	==	==
*-	*-	*-	*-	*-	*-	*-	*-
!!title: @{OTL};
!!!RDF**kern: > = above
!!!RDF**kern: < = below
!!!EED: Wojciech Jakubiak-Danek
!!!EST: 2020-10-14
!!!URL-scan: http://bc.bdsandomierz.pl/dlibra/publication/1594/edition/1562/content
!!!ONB-nifc:
!!!ENC: Andrzej Borzym
!!!END: 2020-04-17
